!!!!SEGMENT: pl-wtm--r-1543--001_stefani-jozef--msza-in-f-kyrie.krn
!!!id: 18xx:1785
!!!COM: Stefani, Józef
!!!COM-rism: pe30024097
!!!CDT: 1800/04/16-1876/03/19
!!!CNT: Polish
!!!OTL: Msza in F – Kyrie
!!!PDT:
!!!SMS-siglum: PL-Wtm
!!!SMS-shelfmark: R 1543
!!!NIFC-rismID: 1001120491
!!!URL-scan: http://repozytorium.nifc.pl/skany/pl-wtm-nut--r1543
!!!ONB-nifc: UWAGA: części Mszy: 1. Kyrie, 2. Gloria, 3. Graduale, 4. Credo, 5. Offertorium, 6. Sanctus, 7. Agnus Dei, 8. Dona nobis
!!!SMS-variant:
!!!SMS-altvar:
!!!OMD: Andante.
**kern	**kern	**kern	**text	**dynam	**kern	**dynam	**kern	**kern	**text	**dynam	**kern	**kern	**kern	**dynam	**kern	**dynam	**kern	**dynam	**kern	**dynam	**kern	**dynam	**kern	**dynam	**kern	**dynam	**kern	**dynam	**kern	**dynam	**kern	**dynam	**kern	**dynam
*part18	*part18	*part17	*part17	*part17	*part16	*part16	*part15	*part14	*part14	*part14	*part13	*part12	*part11	*part11	*part10	*part10	*part9	*part9	*part8	*part8	*part7	*part7	*part6	*part6	*part5	*part5	*part4	*part4	*part3	*part3	*part2	*part2	*part1	*part1
*staff19	*staff18	*staff17	*staff17	*	*staff16	*	*staff15	*staff14	*staff14	*	*staff13	*staff12	*staff11	*	*staff10	*	*staff9	*	*staff8	*	*staff7	*	*staff6	*	*staff5	*	*staff4	*	*staff3	*	*staff2	*	*staff1	*
*	*	*group1	*	*	*group1	*	*group1	*group1	*	*	*	*	*	*	*	*	*	*	*	*	*	*	*	*	*	*	*	*	*	*	*	*	*	*
*>[A,B,B1,B,B2,C,B,B2]	*[A,B,B1,B,B2,C,B,B2]	*[A,B,B1,B,B2,C,B,B2]	*[A,B,B1,B,B2,C,B,B2]	*[A,B,B1,B,B2,C,B,B2]	*[A,B,B1,B,B2,C,B,B2]	*[A,B,B1,B,B2,C,B,B2]	*[A,B,B1,B,B2,C,B,B2]	*[A,B,B1,B,B2,C,B,B2]	*[A,B,B1,B,B2,C,B,B2]	*[A,B,B1,B,B2,C,B,B2]	*[A,B,B1,B,B2,C,B,B2]	*[A,B,B1,B,B2,C,B,B2]	*[A,B,B1,B,B2,C,B,B2]	*[A,B,B1,B,B2,C,B,B2]	*[A,B,B1,B,B2,C,B,B2]	*[A,B,B1,B,B2,C,B,B2]	*[A,B,B1,B,B2,C,B,B2]	*[A,B,B1,B,B2,C,B,B2]	*[A,B,B1,B,B2,C,B,B2]	*[A,B,B1,B,B2,C,B,B2]	*[A,B,B1,B,B2,C,B,B2]	*[A,B,B1,B,B2,C,B,B2]	*[A,B,B1,B,B2,C,B,B2]	*[A,B,B1,B,B2,C,B,B2]	*[A,B,B1,B,B2,C,B,B2]	*[A,B,B1,B,B2,C,B,B2]	*[A,B,B1,B,B2,C,B,B2]	*[A,B,B1,B,B2,C,B,B2]	*[A,B,B1,B,B2,C,B,B2]	*[A,B,B1,B,B2,C,B,B2]	*[A,B,B1,B,B2,C,B,B2]	*[A,B,B1,B,B2,C,B,B2]	*[A,B,B1,B,B2,C,B,B2]	*[A,B,B1,B,B2,C,B,B2]
*>A	*>A	*>A	*>A	*>A	*>A	*>A	*>A	*>A	*>A	*>A	*>A	*>A	*>A	*>A	*>A	*>A	*>A	*>A	*>A	*>A	*>A	*>A	*>A	*>A	*>A	*>A	*>A	*>A	*>A	*>A	*>A	*>A	*>A	*>A
*I"Organo	*	*I"Baſso	*	*	*I"Tenore	*	*I"Alto	*I"Soprano	*	*	*I"Timpani	*I"Fagotti	*I"Tromboni et Serpent	*	*I"Tromboni et Serpent	*	*I"Trombe in C.	*	*I"Corni in F.	*	*I"Corni in C.	*	*I"Clarinetto 2do in C	*	*I"Clarinetto 1mo in C	*	*I"Clarinetto Obligato in C.	*	*I"Petit Clarinet in F.	*	*I"Oboe	*	*I"Flauto	*
*clefF4	*clefG2	*clefF4	*	*	*clefC4	*	*clefG2	*clefG2	*	*	*clefF4	*clefF4	*clefF4	*	*clefC4	*	*clefG2	*	*clefG2	*	*clefG2	*	*clefG2	*	*clefG2	*	*clefG2	*	*clefG2	*	*clefG2	*	*clefG2	*
*	*	*	*	*	*	*	*	*	*	*	*	*	*	*	*	*	*	*	*ITrd4c7	*	*ITrd0c0	*	*	*	*	*	*	*	*ITrd-3c-5	*	*	*	*	*
*k[b-]	*k[b-]	*k[b-]	*	*	*k[b-]	*	*k[b-]	*k[b-]	*	*	*k[b-]	*k[b-]	*k[b-]	*	*k[b-]	*	*k[b-]	*	*k[b-]	*	*k[b-]	*	*k[b-]	*	*k[b-]	*	*k[b-]	*	*k[b-]	*	*k[b-]	*	*k[b-]	*
*M3/4	*M3/4	*M3/4	*	*	*M3/4	*	*M3/4	*M3/4	*	*	*M3/4	*M3/4	*M3/4	*	*M3/4	*	*M3/4	*	*M3/4	*	*M3/4	*	*M3/4	*	*M3/4	*	*M3/4	*	*M3/4	*	*M3/4	*	*M3/4	*
*all\right	*all\right	*all\right	*	*	*all\right	*	*all\right	*all\right	*	*	*	*all\right	*all\right	*	*all\right	*	*all\right	*	*all\right	*	*all\right	*	*all\right	*	*all\right	*	*all\right	*	*all\right	*	*all\right	*	*all\right	*
=1	=1	=1	=1	=1	=1	=1	=1	=1	=1	=1	=1	=1	=1	=1	=1	=1	=1	=1	=1	=1	=1	=1	=1	=1	=1	=1	=1	=1	=1	=1	=1	=1	=1	=1
4r	4r	2.ryy	.	.	2.r	.	2.r	2.r	.	.	2.ryy	4r	4r	.	4r	.	4r	.	4r	.	4r	.	4r	.	4r	.	4r	.	4r	.	4r	.	4r	.
4r	4r	.	.	.	.	.	.	.	.	.	.	4r	4r	.	4r	.	4r	.	4r	.	4r	.	4r	.	4r	.	4r	.	4r	.	4r	.	4r	.
8.r	8.r	.	.	.	.	.	.	.	.	.	.	8.r	8.r	.	8.r	.	8.r	.	8.r	.	8.r	.	8.r	.	8.r	.	8.r	.	8.r	.	8.r	.	8.r	.
!	!	!	!	!	!	!	!	!	!	!	!	!	!	!	!	!LO:DY:rj	!	!LO:DY:rj	!	!	!	!LO:DY:rj	!	!	!	!LO:DY:rj	!	!LO:DY:rj	!	!	!	!	!	!
[16c [>16F\	[16ff [16a [>16f\	.	.	.	.	.	.	.	.	.	.	16F 16FF/	16F 16FF/	.	16f 16A\	f	16a 16f/	f	16f 16A/	.	16a 16c/	f	16a/	.	16ff\	f	16ff\	f	16fff\	.	16cc 16a\	.	16fff\	.
=2	=2	=2	=2	=2	=2	=2	=2	=2	=2	=2	=2	=2	=2	=2	=2	=2	=2	=2	=2	=2	=2	=2	=2	=2	=2	=2	=2	=2	=2	=2	=2	=2	=2	=2
*2\right	*2\right	*	*	*	*	*	*	*	*	*	*	*	*	*	*2\right	*	*	*	*	*	*	*	*	*	*2\right	*	*2\right	*	*2\right	*	*2\right	*	*2\right	*
2c] 2F\]	2ff] 2a] 2f;\]	2ryy	.	.	4r	.	4r	4r	.	.	2ryy	2F 2FF;/	2F 2FF;/	.	2f 2A;\	.	2a 2f;/	.	2f 2A;/	.	2a 2c;/	.	2a;/	.	2ff;\	.	2ff;\	.	2fff;\	.	2cc 2a;\	.	2fff;\	.
.	.	.	.	.	4r;	.	4r;	4r;	.	.	.	.	.	.	.	.	.	.	.	.	.	.	.	.	.	.	.	.	.	.	.	.	.	.
=||	=||	=||	=||	=||	=||	=||	=||	=||	=||	=||	=||	=||	=||	=||	=||	=||	=||	=||	=||	=||	=||	=||	=||	=||	=||	=||	=||	=||	=||	=||	=||	=||	=||	=||
*>B	*>B	*>B	*>B	*>B	*>B	*>B	*>B	*>B	*>B	*>B	*>B	*>B	*>B	*>B	*>B	*>B	*>B	*>B	*>B	*>B	*>B	*>B	*>B	*>B	*>B	*>B	*>B	*>B	*>B	*>B	*>B	*>B	*>B	*>B
!LO:TX:t=[segno]:problem:znak segno na kresce taktowej	!LO:TX:t=[segno]:problem:znak segno na kresce taktowej	!LO:TX:t=[segno]:problem:znak segno na kresce taktowej	!	!	!LO:TX:t=[segno]:problem:znak segno na kresce taktowej	!	!LO:TX:t=[segno]:problem:znak segno na kresce taktowej	!LO:TX:t=[segno]:problem:znak segno na kresce taktowej	!	!	!LO:TX:t=[segno]:problem:znak segno na kresce taktowej	!LO:TX:t=[segno]:problem:znak segno na kresce taktowej	!LO:TX:t=[segno]:problem:znak segno na kresce taktowej	!	!LO:TX:t=[segno]:problem:znak segno na kresce taktowej	!	!LO:TX:t=[segno]:problem:znak segno na kresce taktowej	!	!LO:TX:t=[segno]:problem:znak segno na kresce taktowej	!	!LO:TX:t=[segno]:problem:znak segno na kresce taktowej	!	!LO:TX:t=[segno]:problem:znak segno na kresce taktowej	!	!LO:TX:t=[segno]:problem:znak segno na kresce taktowej	!	!LO:TX:t=[segno]:problem:znak segno na kresce taktowej	!	!LO:TX:t=[segno]:problem:znak segno na kresce taktowej	!	!LO:TX:t=[segno]:problem:znak segno na kresce taktowej	!	!LO:TX:t=[segno]:problem:znak segno na kresce taktowej	!
4c 4F\	(8aL 8f/	4F\	Na	.	4c\	.	(8f/L	8a/L	Na	.	4ryy	4c 4F\	4r	.	4r	.	4r	.	4r	.	4r	.	(8f/L	.	(8a/L	.	8a/L	p	4r	.	(8aL 8f/	.	4r	.
.	8b-J 8g/)	.	.	.	.	.	8g/J)	8b-/J	.	.	.	.	.	.	.	.	.	.	.	.	.	.	8g/J)	.	8b-/J)	.	8b-/J	.	.	.	8b-J 8g/	.	.	.
=3	=3	=3	=3	=3	=3	=3	=3	=3	=3	=3	=3	=3	=3	=3	=3	=3	=3	=3	=3	=3	=3	=3	=3	=3	=3	=3	=3	=3	=3	=3	=3	=3	=3	=3
*	*	*	*	*	*	*	*	*	*	*	*	*	*	*	*	*	*	*	*	*	*	*	*	*	*	*	*	*	*	*	*^	*	*	*
*	*	*2\right	*	*	*2\right	*	*	*2\right	*	*	*	*2\right	*	*	*	*	*	*	*	*	*	*	*	*	*	*	*	*	*	*	*	*	*	*	*
[2.c [>2.F\	2cc 2a\	2F\	stop-	.	2c\	.	2a/	2cc\	stop-	.	2.ryy	2c 2F\	2.r	.	2.r	.	2.r	.	8.r	.	2.r	.	(8a/L	.	2cc\	.	2cc\	.	8.r	.	2cc/	2a\)	p	8.r	.
.	.	.	.	.	.	.	.	.	.	.	.	.	.	.	.	.	.	.	.	.	.	.	8f/	.	.	.	.	.	.	.	.	.	.	.	.
.	.	.	.	.	.	.	.	.	.	.	.	.	.	.	.	.	.	.	16c/	.	.	.	.	.	.	.	.	.	(16cc/	.	.	.	.	(16ccc\	p
*	*	*	*	*	*	*	*	*	*	*	*	*	*	*	*	*	*	*	*^	*	*	*	*	*	*	*	*	*	*	*	*	*	*	*	*
.	.	.	.	.	.	.	.	.	.	.	.	.	.	.	.	.	.	.	4f/	2re	.	.	.	8c/	.	.	.	.	.	4ff\)	.	.	.	.	4fff\)	.
.	.	.	.	.	.	.	.	.	.	.	.	.	.	.	.	.	.	.	.	.	.	.	.	8A/J)	.	.	.	.	.	.	.	.	.	.	.	.
.	4cc 4a\	4F\	-niach	.	4c\	.	4a/	4cc\	-niach	.	.	4c 4F\	.	.	.	.	.	.	4r	.	.	.	.	(8c/L	.	4cc\	.	4cc\	.	4r	.	4cc/	4a\	.	4r	.
.	.	.	.	.	.	.	.	.	.	.	.	.	.	.	.	.	.	.	.	.	.	.	.	8f/J)	.	.	.	.	.	.	.	.	.	.	.	.
*	*	*	*	*	*	*	*	*	*	*	*	*	*	*	*	*	*	*	*v	*v	*	*	*	*	*	*	*	*	*	*	*	*v	*v	*	*	*
=4	=4	=4	=4	=4	=4	=4	=4	=4	=4	=4	=4	=4	=4	=4	=4	=4	=4	=4	=4	=4	=4	=4	=4	=4	=4	=4	=4	=4	=4	=4	=4	=4	=4	=4
2.c] 2.F\]	4.cc 4.a/	2F\	Twe-	.	2c\	.	(4.a/	(4.cc\	Twe-	.	2.ryy	2c 2F\	2.r	.	2.r	.	2.r	.	2.r	.	2.r	.	(8a/L	.	(4.cc\	.	(4.cc\	.	2.r	.	(4.cc 4.a/	.	2.r	.
.	.	.	.	.	.	.	.	.	.	.	.	.	.	.	.	.	.	.	.	.	.	.	8c/	.	.	.	.	.	.	.	.	.	.	.
.	.	.	.	.	.	.	.	.	.	.	.	.	.	.	.	.	.	.	.	.	.	.	8a/	.	.	.	.	.	.	.	.	.	.	.
.	8b- 8g/	.	.	.	.	.	8g/)	8b-\)	.	.	.	.	.	.	.	.	.	.	.	.	.	.	8g/	.	8b-\)	.	8b-\)	.	.	.	8b- 8g/)	.	.	.
.	4a 4f/	4F\	-go	.	4c\	.	4f/	4a/	-go	.	.	4c 4F\	.	.	.	.	.	.	.	.	.	.	8f/)	.	4a/	.	4a/	.	.	.	4a 4f/	.	.	.
.	.	.	.	.	.	.	.	.	.	.	.	.	.	.	.	.	.	.	.	.	.	.	8c/J	.	.	.	.	.	.	.	.	.	.	.
!!LO:PB:g=original
=5	=5	=5	=5	=5	=5	=5	=5	=5	=5	=5	=5	=5	=5	=5	=5	=5	=5	=5	=5	=5	=5	=5	=5	=5	=5	=5	=5	=5	=5	=5	=5	=5	=5	=5
2.c 2.C\	8gL 8e/	8C/	u-	.	8c\	.	8e/	8g/	U-	.	2.ryy	2c 2C\	2.r	.	2.r	.	2.r	.	8.r	.	2.r	.	(8e/L	.	(8g/L	.	(8g/L	.	8.r	.	(8gL 8e/	.	8.r	.
.	8aJ 8f/	8C/	-pa-	.	8c\	.	8f/	8a/	-pa-	.	.	.	.	.	.	.	.	.	.	.	.	.	8f/	.	8a/J	.	8a/J	.	.	.	8aJ 8f/	.	.	.
.	.	.	.	.	.	.	.	.	.	.	.	.	.	.	.	.	.	.	16c/	.	.	.	.	.	.	.	.	.	(16cc/	.	.	.	(16ccc|\	.
.	4b- 4g/	4C/	-da-	.	4c\	.	4g/	4b-\	-da-	.	.	.	.	.	.	.	.	.	4g/	.	.	.	8g/	.	4b-\	.	4b-\	.	4gg\)	.	4b- 4g/	.	4ggg\)	.
.	.	.	.	.	.	.	.	.	.	.	.	.	.	.	.	.	.	.	.	.	.	.	8c/	.	.	.	.	.	.	.	.	.	.	.
.	8ccL 8a\	4C/	-my	.	4c\	.	(8a/L	(8cc\L	-my	.	.	4c 4C\	.	.	.	.	.	.	4r	.	.	.	8a/	.	8cc\L	.	8cc\L	.	4r	.	8ccL 8a/	.	4r	.
.	8ddJ 8b-\	.	.	.	.	.	8b-/J)	8dd\J)	.	.	.	.	.	.	.	.	.	.	.	.	.	.	8b-/J)	.	8dd\J)	.	8dd\J)	.	.	.	8ddJ 8b-/)	.	.	.
=6	=6	=6	=6	=6	=6	=6	=6	=6	=6	=6	=6	=6	=6	=6	=6	=6	=6	=6	=6	=6	=6	=6	=6	=6	=6	=6	=6	=6	=6	=6	=6	=6	=6	=6
8cL 8C|\	8ccL 8a/	8C\L	tro-	.	4c\	.	(8a/L	(8cc\L	tro-	.	2.ryy	8cL 8C\	2.r	.	2.r	.	2.r	.	2.r	.	2.r	.	(8a/L	.	(8cc\L	.	(8cc\L	.	4r	.	(8ccL 8a/	.	2.r	.
8E\J	8b-J 8g/	8E\J	.	.	.	.	8g/J)	8b-\J)	.	.	.	8eJ 8E\	.	.	.	.	.	.	.	.	.	.	8g/	.	8b-\J	.	8b-\J	.	.	.	8b-J 8g/	.	.	.
4c 4F\	4a 4f/	4F\	-nu	.	4c\	.	4f/	4a/	-nu	.	.	4f 4F\	.	.	.	.	.	.	.	.	.	.	8f/	.	4a/)	.	4a/)	.	4r	.	4a 4f/)	.	.	.
.	.	.	.	.	.	.	.	.	.	<	.	.	.	.	.	.	.	.	.	.	.	.	8c/	.	.	.	.	.	.	.	.	.	.	.
4d 4D\	8.aL 8.f/	4D\	Po-	.	4d\	.	4f/	(8.a\L	Po-	.	.	4d 4D\	.	.	.	.	.	.	.	.	.	.	8f/	.	8.a\L	<	(8.a\L	<	8.aa\L	.	4r	.	.	.
.	.	.	.	.	.	.	.	.	.	.	.	.	.	.	.	.	.	.	.	.	.	.	8d/J)	.	.	.	.	.	.	.	.	.	.	.
.	16ffJk 16a 16f/	.	.	.	.	.	.	16ff\Jk)	.	[	.	.	.	.	.	.	.	.	.	.	.	.	.	.	16ff\Jk	[[	16ff\Jk)	[[	16fff\Jk	.	.	.	.	.
=7	=7	=7	=7	=7	=7	=7	=7	=7	=7	=7	=7	=7	=7	=7	=7	=7	=7	=7	=7	=7	=7	=7	=7	=7	=7	=7	=7	=7	=7	=7	=7	=7	=7	=7
*	*^	*	*	*	*	*	*	*	*	*	*	*	*	*	*	*	*	*	*	*	*	*	*	*	*	*	*	*	*	*	*^	*	*	*
*	*	*^	*	*	*	*	*	*	*	*	*	*	*	*	*	*	*	*	*	*	*	*	*	*	*	*	*	*	*	*	*	*	*	*	*	*
!	!	!	!	!	!	!	!	!	!	!	!	!LO:DY:rj	!	!	!	!	!	!	!	!	!	!	!	!	!	!	!	!LO:DY:rj	!	!LO:DY:rj:a	!	!	!	!	!	!	!
2d 2D\	2ff/	4a/	[<2f\	2D\	-tę-	.	(4A\	.	2f/	2ff\	-tę-	f	2.ryy	2d 2D\	8.r	.	8.r	f	8.r	.	8.r	f	8.r	f	(8f/L	.	2ff\	f	2ff\	f	2fff\	.	2ff/	4a\	.	8.r	.
.	.	.	.	.	.	.	.	.	.	.	.	.	.	.	.	.	.	.	.	.	.	.	.	.	8a/	.	.	.	.	.	.	.	.	.	.	.	.
.	.	.	.	.	.	.	.	.	.	.	.	.	.	.	16D\	.	16f 16A\	.	16dd\	.	16a 16f\	.	16dd\	.	.	.	.	.	.	.	.	.	.	.	.	16ff|\	.
.	.	4a-X/	.	.	.	.	4A-X\)	.	.	.	.	.	.	.	4D\	.	4f 4A-X\	.	4dd\	.	4a-X 4f\	.	4dd\	.	8f/	.	.	.	.	.	.	.	.	4a-X\	.	(4fff\	.
.	.	.	.	.	.	.	.	.	.	.	.	.	.	.	.	.	.	.	.	.	.	.	.	.	8a-X/	.	.	.	.	.	.	.	.	.	.	.	.
4d 4D\	4bn 4g/	4ryy	4f\]	4D\	-żny	.	4G/	.	4f/	4bn\	-żny	.	.	4d 4D\	4D\	.	4f 4G\	.	4dd 4g/	.	4g 4f\	.	4dd 4g/	.	8f/	.	4bn\	.	4bn\	.	4bbX\	.	4bn/	4g\	.	4bbn\	.
.	.	.	.	.	.	.	.	.	.	.	.	.	.	.	.	.	.	.	.	.	.	.	.	.	8g/J)	.	.	.	.	.	.	.	.	.	.	.	.
*	*v	*v	*v	*	*	*	*	*	*	*	*	*	*	*	*	*	*	*	*	*	*	*	*	*	*	*	*	*	*	*	*	*	*	*	*	*	*
=8	=8	=8	=8	=8	=8	=8	=8	=8	=8	=8	=8	=8	=8	=8	=8	=8	=8	=8	=8	=8	=8	=8	=8	=8	=8	=8	=8	=8	=8	=8	=8	=8	=8	=8	=8
2.c 2.C\	4.cc 4.g 4.e/	4.C/	Sa-	.	4.G/	.	4.e/	4.cc\	Sa-	.	2.ryy	4.c 4.C\	4C/	.	4e 4G\	.	4.cc 4.e/	.	4g 4c/	.	4.cc 4.e/	.	(8e/L	.	4.ccSSs\	.	4.ccSSs\	.	4.cccSSs\	.	4cc/	4g\	.	4.cccSSs\)	.
.	.	.	.	.	.	.	.	.	.	.	.	.	.	.	.	.	.	.	.	.	.	.	8g/	.	.	.	.	.	.	.	.	.	.	.	.
.	.	.	.	.	.	.	.	.	.	.	.	.	4r	.	4r	.	.	.	4r	.	.	.	8e/	.	.	.	.	.	.	.	4r	4ryy	.	.	.
.	8dd 8f/	8C/	-ba-	.	8G/	.	8f/	8dd\	-ba-	.	.	8c 8C\	.	.	.	.	8dd 8g/	.	.	.	8dd 8g/	.	8f/	.	(8dd\	.	(8dd\	.	8ddd\	.	.	.	.	8ddd\	.
.	4ee 4g/	4C/	-oth	.	4G/	.	4g/	4ee\	-oth	.	.	4c 4C\	4r	.	4r	.	4ee 4cc\	.	4r	.	4ee 4cc\	.	8g/	.	[4ee\)	.	[4ee\)	.	4eee\	.	4ee/	4g/	.	[4eee\	.
.	.	.	.	.	.	.	.	.	.	.	.	.	.	.	.	.	.	.	.	.	.	.	8e/J)	.	.	.	.	.	.	.	.	.	.	.	.
=9	=9	=9	=9	=9	=9	=9	=9	=9	=9	=9	=9	=9	=9	=9	=9	=9	=9	=9	=9	=9	=9	=9	=9	=9	=9	=9	=9	=9	=9	=9	=9	=9	=9	=9	=9
*	*^	*	*	*	*	*	*	*	*	*	*	*^	*	*	*	*	*	*	*	*	*^	*	*	*	*	*	*	*	*	*	*	*	*	*	*
!	!	!	!	!	!	!	!	!	!	!	!	!	!	!	!	!	!LO:TX:b:t=Tromboni	!	!LO:TX:a:t=Trombe	!	!	!	!	!	!	!	!	!	!	!	!	!	!	!	!	!	!	!
!	!	!	!	!	!	!	!	!	!	!	!	!	!	!	!LO:TX:t=P:problem:w źródle partia dopisana na pięciolinii Tromboni	!	!LO:TX:t=P:problem:w źródle partia dopisana na pięciolinii Trombe	!	!LO:TX:t=P:problem:w źródle partia dopisana na pięciolinii Serpent	!	!	!	!	!	!	!	!	!	!	!	!	!	!	!	!	!	!	!
4F\	8ee/L	4a 4f\	8F\	wie-	.	8A/	.	8f/	8ee\	wie-	.	2.ryy	4A/	4F\	4r	.	4r	.	2.r	.	2.r	.	8.r	8.ryy	.	(8f/L	.	8ee\L]	.	8ee\L]	.	8eee\L	.	8ee/L	4a\	.	8eee\L]	.
.	8dd/J	.	8F\	-ku-	.	8A/	.	8f/	8dd\	-ku-	.	.	.	.	.	.	.	.	.	.	.	.	.	.	.	8a/	.	8dd\J	.	8dd\J	.	8ddd\J	.	8dd/J	.	.	(8ddd\	.
.	.	.	.	.	.	.	.	.	.	.	.	.	.	.	.	.	.	.	.	.	.	.	16dd/	16dd\	.	.	.	.	.	.	.	.	.	.	.	.	.	.
4G\	4cc 4g 4e/	2ryy	4G\	-i-	.	4G/	.	4e/	4cc\	-i-	.	.	4G\	2ryy	4r	.	4r	.	.	.	.	.	4ee/	4cc\	.	8e/	.	4cc\	.	4cc\	.	4ccc\	.	4cc/	2g\	.	8ccc\	.
.	.	.	.	.	.	.	.	.	.	.	.	.	.	.	.	.	.	.	.	.	.	.	.	.	.	8g/	.	.	.	.	.	.	.	.	.	.	8gg\	.
4G 4GG\	4bn 4g 4f 4d/	.	4GG/	-sty	.	4G/	.	4d/	4bn\	-sty	.	.	4G 4GG/	.	4G 4GG\	.	4f 4Bn\	.	.	.	.	.	4dd 4g/	4ryy	.	8d/	.	4bn\	.	4bn\	.	4bbX\	.	4bn/	.	.	8ff\	.
.	.	.	.	.	.	.	.	.	.	.	.	.	.	.	.	.	.	.	.	.	.	.	.	.	.	8f/J)	.	.	.	.	.	.	.	.	.	.	8gg\J)	.
*	*v	*v	*	*	*	*	*	*	*	*	*	*	*	*	*	*	*	*	*	*	*	*	*	*	*	*	*	*	*	*	*	*	*	*	*	*	*	*
=10	=10	=10	=10	=10	=10	=10	=10	=10	=10	=10	=10	=10	=10	=10	=10	=10	=10	=10	=10	=10	=10	=10	=10	=10	=10	=10	=10	=10	=10	=10	=10	=10	=10	=10	=10	=10	=10
*^	*	*	*	*	*	*	*	*	*	*	*	*	*^	*^	*	*	*	*	*	*	*	*	*	*	*	*	*	*	*	*	*	*	*	*	*	*	*
*	*	*	*	*	*	*	*	*	*	*	*	*	*	*	*	*	*^	*	*	*	*	*	*	*	*	*	*	*	*	*	*	*	*	*	*	*	*	*	*	*
*	*	*	*	*	*	*	*	*	*	*	*	*	*	*	*	*	*	*	*	*	*	*	*	*	*	*	*	*	*tremolo	*	*	*	*	*	*	*	*	*	*	*	*
!	!	!	!	!	!	!	!	!	!	!	!LO:DY:a	!	!	!	!	!	!	!	!	!	!	!	!	!	!	!	!	!	!	!	!LO:TX:t=P:problem:accentlike diminuendo	!	!	!	!	!	!	!	!	!	!
2G/	4C\	2dd 2bn 2f/	(>4C/	Bo-	.	(4G/	.	2f/	2dd\	Bo-	>	2.ryy	2G/	4C\	4C/	2G/	4C\	4C/	.	2f 2Bn\	.	2.r	.	2.r	.	2dd 2f/	2.ryy	.	(8f/L	.	(2dd\	>	(2dd\	>	2ddd\	.	2dd/	2g\	.	(2bbn\	.
.	.	.	.	.	.	.	.	.	.	.	.	.	.	.	.	.	.	.	.	.	.	.	.	.	.	.	.	.	8a/)	.	.	]	.	.	.	.	.	.	.	.	.
.	4GG\	.	4GG/)	.	.	4Bn\)	.	.	.	.	.	.	.	4GG\	2ryy	.	4GG/	2ryy	.	.	.	.	.	.	.	.	.	.	(8f/	.	.	.	.	]	.	.	.	.	.	.	.
.	.	.	.	.	.	.	.	.	.	.	.	.	.	.	.	.	.	.	.	.	.	.	.	.	.	.	.	.	8a/J)	.	.	.	.	.	.	.	.	.	.	.	.
*	*	*	*	*	*	*	*	*	*	*	*	*	*	*	*	*	*	*	*	*	*	*	*	*	*	*	*	*	*Xtremolo	*	*	*	*	*	*	*	*	*	*	*	*
4G/	4C\	4cc 4e/	4C/	-ze	.	4c\	.	4e/	4cc\	-że	]]	.	4G/	4C\	.	4C/	4C\	.	.	4e 4c\	.	.	.	.	.	4cc 4e/	.	.	4e/	.	4cc\)	.	4cc\)	.	4ccc\	.	4cc/	4g\	.	4ccc\)	.
*	*	*	*	*	*	*	*	*	*	*	*	*	*	*v	*v	*	*	*	*	*	*	*	*	*	*	*v	*v	*	*	*	*	*	*	*	*	*	*v	*v	*	*	*
*	*	*	*	*	*	*	*	*	*	*	*	*	*	*	*v	*v	*v	*	*	*	*	*	*	*	*	*	*	*	*	*	*	*	*	*	*	*	*	*
!!LO:PB:g=original
=11||	=11||	=11||	=11||	=11||	=11||	=11||	=11||	=11||	=11||	=11||	=11||	=11||	=11||	=11||	=11||	=11||	=11||	=11||	=11||	=11||	=11||	=11||	=11||	=11||	=11||	=11||	=11||	=11||	=11||	=11||	=11||	=11||	=11||	=11||	=11||	=11||
!	!	!	!	!	!LO:DY:rj	!	!LO:DY:rj:a	!	!	!	!LO:DY:rj	!	!	!	!	!LO:DY:rj	!	!	!	!	!	!LO:DY:rj	!	!	!	!	!	!	!	!	!	!	!	!LO:DY:rj	!	!
2c\	4C\	4b- 4g/	4C/	Ja-	p	4c\	p	4g/	4b-/	Ja-	p	2.r	2c/	4C\	4C/	p	2.r	.	2.r	.	4b- 4g\	p	2.r	.	4r	.	4r	.	8.r	.	2.r	.	(4b- 4g/	p	8.r	.
!	!	!	!	!	!	!	!	!	!	!	!	!	!	!	!	!	!	!	!	!	!	!	!	!	!	!	!	!	!LO:TX:a:t=Solo	!LO:DY:rj	!	!	!	!	!	!
.	.	.	.	.	.	.	.	.	.	.	.	.	.	.	.	.	.	.	.	.	.	.	.	.	.	.	.	.	16cc\	p	.	.	.	.	16ccc\	.
.	4E\	4g 4c/	4E\	-każ	.	4c\	.	4c/	4g/	-każ	.	.	.	4E\	4E\	.	.	.	.	.	4g 4c/	.	.	.	4r	.	4r	.	4ccT\	.	.	.	4g 4e/)	.	4cccT\	.
.	.	.	.	.	.	.	.	.	.	.	.	.	.	.	.	.	.	.	.	.	.	.	.	.	.	.	.	.	(16qqbn/LL	.	.	.	.	.	(>16qqbbn/LL	.
.	.	.	.	.	.	.	.	.	.	.	.	.	.	.	.	.	.	.	.	.	.	.	.	.	.	.	.	.	16qqcc/JJ	.	.	.	.	.	16qqccc/JJ	.
!	!	!	!	!	!	!	!	!	!	!	!	!	!	!	!	!	!	!	!	!	!	!	!	!	!	!	!	!LO:DY:rj	!	!	!	!	!	!	!	!
4B-\	4C\	4g 4e/	4C/	o-	.	4B-\	.	4e/	4g/	o-	.	.	4B-/	4C\	4C/	.	.	.	.	.	4g 4c/	.	.	.	4e/	.	4cc\	p	8.dd\L)	.	.	.	4r	.	8.ddd\L)	.
.	.	.	.	.	.	.	.	.	.	.	.	.	.	.	.	.	.	.	.	.	.	.	.	.	.	.	.	.	16ee|\Jk	.	.	.	.	.	16eee|\Jk	.
*v	*v	*	*	*	*	*	*	*	*	*	*	*	*v	*v	*	*	*	*	*	*	*	*	*	*	*	*	*	*	*	*	*	*	*	*	*	*
=12	=12	=12	=12	=12	=12	=12	=12	=12	=12	=12	=12	=12	=12	=12	=12	=12	=12	=12	=12	=12	=12	=12	=12	=12	=12	=12	=12	=12	=12	=12	=12	=12	=12	=12
*	*^	*	*	*	*	*	*	*	*	*	*	*	*	*	*	*	*	*	*^	*	*	*	*	*	*	*	*	*	*	*	*	*	*	*
2A 2F\	2cc/	2.f\	2F\	-fia-	.	2A\	.	2f/	2cc\	-fia-	.	2.r	2A 2F\	4F\	.	2.r	.	2.r	.	2cc/	2a\	.	2.r	.	2f/	.	(2cc\	.	(16ff\LL	.	2.r	.	4r	.	(16fff\LL	.
.	.	.	.	.	.	.	.	.	.	.	.	.	.	.	.	.	.	.	.	.	.	.	.	.	.	.	.	.	16cc\	.	.	.	.	.	16ccc\	.
.	.	.	.	.	.	.	.	.	.	.	.	.	.	.	.	.	.	.	.	.	.	.	.	.	.	.	.	.	16aa\	.	.	.	.	.	16aaa\	.
.	.	.	.	.	.	.	.	.	.	.	.	.	.	.	.	.	.	.	.	.	.	.	.	.	.	.	.	.	16gg\JJ	.	.	.	.	.	16ggg\JJ	.
.	.	.	.	.	.	.	.	.	.	.	.	.	.	4FF/	.	.	.	.	.	.	.	.	.	.	.	.	.	.	16ff\LL	.	.	.	(4a 4f/	.	16fff\LL	.
.	.	.	.	.	.	.	.	.	.	.	.	.	.	.	.	.	.	.	.	.	.	.	.	.	.	.	.	.	16ee\	.	.	.	.	.	16eee\	.
.	.	.	.	.	.	.	.	.	.	.	.	.	.	.	.	.	.	.	.	.	.	.	.	.	.	.	.	.	16dd\	.	.	.	.	.	16ddd\	.
.	.	.	.	.	.	.	.	.	.	.	.	.	.	.	.	.	.	.	.	.	.	.	.	.	.	.	.	.	16cc\JJ	.	.	.	.	.	16ccc\JJ	.
4c 4F\	4a/	.	4F\	-ra	.	4c\	.	4f/	4a/	-ra	.	.	4c 4F\	4r	.	.	.	.	.	4a/	4f\	.	.	.	4f/	.	4a/)	.	16b-/LL	.	.	.	4cc 4a/)	.	16bb-\LL	.
.	.	.	.	.	.	.	.	.	.	.	.	.	.	.	.	.	.	.	.	.	.	.	.	.	.	.	.	.	16a/	.	.	.	.	.	16aa\	.
.	.	.	.	.	.	.	.	.	.	.	.	.	.	.	.	.	.	.	.	.	.	.	.	.	.	.	.	.	16g/	.	.	.	.	.	16gg\	.
.	.	.	.	.	.	.	.	.	.	.	.	.	.	.	.	.	.	.	.	.	.	.	.	.	.	.	.	.	16f/JJ)	.	.	.	.	.	16ff\JJ	.
*	*v	*v	*	*	*	*	*	*	*	*	*	*	*	*	*	*	*	*	*	*v	*v	*	*	*	*	*	*	*	*	*	*	*	*	*	*	*
=13	=13	=13	=13	=13	=13	=13	=13	=13	=13	=13	=13	=13	=13	=13	=13	=13	=13	=13	=13	=13	=13	=13	=13	=13	=13	=13	=13	=13	=13	=13	=13	=13	=13	=13
*^	*	*	*	*	*	*	*	*	*	*	*	*^	*	*	*	*	*	*	*	*	*	*	*	*	*	*	*	*	*	*	*	*	*	*
2c/	4C\	4b- 4g/	8C/	mil-	.	8c\	.	8g/	8b-\	mil-	.	2.r	2c/	4C\	4C/	.	2.r	.	2.r	.	8b-L 8g\	.	2.r	.	4r	.	4r	.	8e/L	.	2.r	.	(8.b-L 8.g/	.	8ee\L)	.
.	.	.	8C/	-szą	.	8c\	.	8g/	8b-\	-szą	.	.	.	.	.	.	.	.	.	.	8b-J 8g\	.	.	.	.	.	.	.	16r	.	.	.	.	.	16r	.
.	.	.	.	.	.	.	.	.	.	.	.	.	.	.	.	.	.	.	.	.	.	.	.	.	.	.	.	.	16cc/Jk	.	.	.	16gJk 16e/)	.	16ccc\Jk	.
.	4E\	4g 4c/	4E\	Ci	.	4c\	.	4c/	4g/	Ci	.	.	.	4E\	4E/	.	.	.	.	.	4g 4c/	.	.	.	4r	.	4r	.	4ccT\	.	.	.	4g 4e/	.	4cccT\	.
.	.	.	.	.	.	.	.	.	.	.	.	.	.	.	.	.	.	.	.	.	.	.	.	.	.	.	.	.	(16qqbn/LL	.	.	.	.	.	(>16qqbbn/LL	.
.	.	.	.	.	.	.	.	.	.	.	.	.	.	.	.	.	.	.	.	.	.	.	.	.	.	.	.	.	16qqcc/JJ	.	.	.	.	.	16qqccc/JJ	.
4B- 4C\	4ryy	4g 4e/	4C/	bydź	.	4B-\	.	4e/	4g/	bydź	.	.	4B-/	4C\	4C/	.	.	.	.	.	4g 4c/	.	.	.	4e/	.	4cc\	.	8.dd\L)	.	.	.	4r	.	8.ddd\L)	.
.	.	.	.	.	.	.	.	.	.	.	.	.	.	.	.	.	.	.	.	.	.	.	.	.	.	.	.	.	16ee|\Jk	.	.	.	.	.	16eee|\Jk	.
=14	=14	=14	=14	=14	=14	=14	=14	=14	=14	=14	=14	=14	=14	=14	=14	=14	=14	=14	=14	=14	=14	=14	=14	=14	=14	=14	=14	=14	=14	=14	=14	=14	=14	=14	=14	=14
*	*	*^	*	*	*	*	*	*	*	*	*	*	*	*	*	*	*	*	*	*	*^	*	*	*	*	*	*	*	*	*	*	*	*	*	*	*
2A/	2F\	2cc/	2.f\	2F\	mo-	.	2A\	.	2f/	2cc\	mo-	.	2.r	2A/	2F\	4F\	.	2.r	.	2.r	.	2cc/	2a\	.	2.r	.	2f/	.	(2cc\	.	(16ff\LL	.	2.r	.	4r	.	(16fff\LL	.
.	.	.	.	.	.	.	.	.	.	.	.	.	.	.	.	.	.	.	.	.	.	.	.	.	.	.	.	.	.	.	16cc\	.	.	.	.	.	16ccc\	.
.	.	.	.	.	.	.	.	.	.	.	.	.	.	.	.	.	.	.	.	.	.	.	.	.	.	.	.	.	.	.	16aa\	.	.	.	.	.	16aaa\	.
.	.	.	.	.	.	.	.	.	.	.	.	.	.	.	.	.	.	.	.	.	.	.	.	.	.	.	.	.	.	.	16gg\JJ	.	.	.	.	.	16ggg\JJ	.
.	.	.	.	.	.	.	.	.	.	.	.	.	.	.	.	4FF/	.	.	.	.	.	.	.	.	.	.	.	.	.	.	16ff\LL	.	.	.	(4a 4f/	.	16fff\LL	.
.	.	.	.	.	.	.	.	.	.	.	.	.	.	.	.	.	.	.	.	.	.	.	.	.	.	.	.	.	.	.	16ee\	.	.	.	.	.	16eee\	.
.	.	.	.	.	.	.	.	.	.	.	.	.	.	.	.	.	.	.	.	.	.	.	.	.	.	.	.	.	.	.	16dd\	.	.	.	.	.	16ddd\	.
.	.	.	.	.	.	.	.	.	.	.	.	.	.	.	.	.	.	.	.	.	.	.	.	.	.	.	.	.	.	.	16cc\JJ	.	.	.	.	.	16ccc\JJ	.
4c/	8F\L	4a/	.	8F\L	-że	.	4c\	.	4f/	4a/	-że	.	.	4c/	8F\L	8F\L	.	.	.	.	.	4a/	4f\	.	.	.	4f/	.	4a/)	.	16b-/LL	.	.	.	4cc 4a/)	.	16bb-\LL	.
.	.	.	.	.	.	.	.	.	.	.	.	.	.	.	.	.	.	.	.	.	.	.	.	.	.	.	.	.	.	.	16a/	.	.	.	.	.	16aa\	.
.	8E\J	.	.	8E\J	.	.	.	.	.	.	.	.	.	.	8E\J	8E\J	.	.	.	.	.	.	.	.	.	.	.	.	.	.	16g/	.	.	.	.	.	16gg\	.
.	.	.	.	.	.	.	.	.	.	.	.	.	.	.	.	.	.	.	.	.	.	.	.	.	.	.	.	.	.	.	16f/JJ)	.	.	.	.	.	16ff\JJ)	.
*v	*v	*	*	*	*	*	*	*	*	*	*	*	*	*v	*v	*	*	*	*	*	*	*	*	*	*	*	*	*	*	*	*	*	*	*	*	*	*	*
*	*v	*v	*	*	*	*	*	*	*	*	*	*	*	*	*	*	*	*	*	*	*	*	*	*	*	*	*	*	*	*	*	*	*	*	*	*
!!LO:PB:g=original
=15	=15	=15	=15	=15	=15	=15	=15	=15	=15	=15	=15	=15	=15	=15	=15	=15	=15	=15	=15	=15	=15	=15	=15	=15	=15	=15	=15	=15	=15	=15	=15	=15	=15	=15	=15
*	*	*	*	*	*	*	*	*	*	*	*	*	*	*	*	*	*^	*	*	*	*	*^	*	*	*	*	*	*	*	*	*	*^	*	*	*
2d 2D\	4ff 4a 4f/	4D/	Nad	.	4d\	.	4f/	4ff\	Nad	.	2.ryy	4D\	4D\	.	4r	.	4r	4ryy	.	4r	4ryy	.	4r	4ryy	.	2f/	.	(4ff\	<	(4ff\	<	4r	.	4r	2ryy	.	4r	.
.	4a 4f/	4D/	tę	.	4d\	.	4f/	4a/	tę	.	.	4d 4D\	4D\	.	4d 4F\	.	4a/	4f\	.	4a/	4f\	<	4r	4ryy	.	.	.	4a/)	.	4a/)	.	4r	.	4r	.	<	4r	.
4c 4C\	4a 4f#X 4d/	4C/	o-	.	4d\	.	4f#X/	4a/	o-	.	.	4c 4C\	4C\	.	4d 4F#X\	.	4a/	4f#X\	.	4a/	4f#X\	.	4dd/	4dd\	.	(4f#Xt/	.	4a/	[	4a/	[	4ff#Xt\	<	4ff#Xt/	4dd\	.	(<4ff#Xt\	.
*	*	*	*	*	*	*	*	*	*	*	*	*	*	*	*	*	*	*	*	*v	*v	*	*	*	*	*	*	*	*	*	*	*	*	*v	*v	*	*	*
*	*	*	*	*	*	*	*	*	*	*	*	*	*	*	*	*	*	*	*	*	*	*v	*v	*	*	*	*	*	*	*	*	*	*	*	*	*
.	.	.	.	.	.	.	.	.	.	.	.	.	.	.	.	.	.	.	.	.	.	.	.	16qqe/LL	.	.	.	.	.	16qqee/LL	.	16qqee/LL	.	16qqee/LL	.
.	.	.	.	.	.	.	.	.	.	.	.	.	.	.	.	.	.	.	.	.	.	.	.	16qqf#/JJ	.	.	.	.	.	16qqff#/JJ	.	16qqff#/JJ	.	16qqff#/JJ)	.
=16	=16	=16	=16	=16	=16	=16	=16	=16	=16	=16	=16	=16	=16	=16	=16	=16	=16	=16	=16	=16	=16	=16	=16	=16	=16	=16	=16	=16	=16	=16	=16	=16	=16	=16	=16
!	!	!	!	!	!	!	!	!	!	!	!	!	!	!	!	!	!	!	!	!	!	!	!	!	!LO:DY:rj:a	!	!LO:DY:rj:a	!	!LO:DY:rj:a	!	!	!	!LO:DY:rj	!	!
8B-L 8BB-\	8gL 8d/	8BB-/L	-fia-	.	4d\	.	(8g/L	(>8g/L	-fia-	.	2.ryy	8B-L 8BB-\	8BB-/L	.	8dL 8G\	.	8g/L	8g\L	.	8g\L	[ f	8dd\L	.	8g/L)	f	8g'/L	f	8g'/L	f	(16gg\LL	[ f	8ggL 8dd\	[ f	(16gg\LL	.
.	.	.	.	.	.	.	.	.	.	.	.	.	.	.	.	.	.	.	.	.	.	.	.	.	.	.	.	.	.	16dd\	.	.	.	16dd\	.
8F#XJ 8FF#X\	8aJ 8d/	8FF#X/J	.	.	.	.	8d/J)	8a/J)	.	.	.	8F#XJ 8FF#X\	8FF#X/J	.	8dJ 8A\	.	8a/J	8f#X\J	.	8aJ 8f#X\	.	8dd\J	.	8d/J	.	8a'/J	.	8a'/J	.	16aa\	.	8aaJ 8dd\	.	16aa\	.
.	.	.	.	.	.	.	.	.	.	.	.	.	.	.	.	.	.	.	.	.	.	.	.	.	.	.	.	.	.	16dd\JJ	.	.	.	16dd\JJ)	.
4G 4GG\	4b- 4g 4d/	4GG/	-rę	.	4d\	.	4d/	4b-/	-rę	.	.	4G 4GG/	4GG/	.	4d 4B-\	.	4b-/	4g\	.	4g\	.	4dd\	.	4d/	.	4b-'/	.	4b-'/	.	4bb-\)	.	4bb- 4dd\	.	4bb-\	.
!	!	!	!	!	!	!	!	!	!	!	!	!	!	!	!	!	!	!	!	!	!	!	!	!	!LO:DY:rj:a	!	!LO:DY:rj:a	!	!LO:DY:rj:a	!	!	!	!	!	!
8AA\L	8aL 8f#X 8d/	(8AA/L	Chri-	.	(8c\L	.	4d/	(8a/L	Chri-	.	.	8AL 8AA\	4r	.	4r	.	4r	4ryy	.	4r	.	4r	.	(8c/L	p	(8a/L	p	(8a/L	p	4r	.	4r	.	4r	.
8BB-\J	8gJ 8d 8c/	8BB-/J)	.	.	8B-\J)	.	.	8g/J)	.	.	.	8B-J 8BB-\	.	.	.	.	.	.	.	.	.	.	.	8B-/J	.	8g/J	.	8g/J)	.	.	.	.	.	.	.
*	*	*	*	*	*	*	*	*	*	*	*	*	*	*	*	*	*v	*v	*	*	*	*	*	*	*	*	*	*	*	*	*	*	*	*	*
=17	=17	=17	=17	=17	=17	=17	=17	=17	=17	=17	=17	=17	=17	=17	=17	=17	=17	=17	=17	=17	=17	=17	=17	=17	=17	=17	=17	=17	=17	=17	=17	=17	=17	=17
*	*	*	*	*	*	*	*	*	*	*	*	*^	*	*	*	*	*	*	*	*	*	*	*	*	*	*	*	*	*	*	*^	*	*	*
2C/	2f 2c 2A/	4C/	-stu-	.	4A/	.	4c/	4f/	-stu-	.	2.ryy	4A/	4C\	2.r	.	2.r	.	2.r	.	16r	.	2.r	.	4A/)	.	4f/)	.	4f/	.	2.r	.	16r	2ryy	.	2.r	.
.	.	.	.	.	.	.	.	.	.	.	.	.	.	.	.	.	.	.	.	16cLL 16C'/	.	.	.	.	.	.	.	.	.	.	.	16ccLL 16c'/	.	.	.	.
.	.	.	.	.	.	.	.	.	.	.	.	.	.	.	.	.	.	.	.	16f 16F'/	.	.	.	.	.	.	.	.	.	.	.	16ff 16f'/	.	.	.	.
.	.	.	.	.	.	.	.	.	.	.	.	.	.	.	.	.	.	.	.	16aJJ 16A'/	.	.	.	.	.	.	.	.	.	.	.	16aaJJ 16a'/	.	.	.	.
.	.	4C/	-sa	.	4A/	.	4c/	4f/	-sa	.	.	4A/	4C\	.	.	.	.	.	.	(16ccLL 16c/	.	.	.	4A/	.	4f/	.	8.f/L	.	.	.	(16cccLL 16cc\	.	.	.	.
.	.	.	.	.	.	.	.	.	.	.	.	.	.	.	.	.	.	.	.	16a 16A/)	.	.	.	.	.	.	.	.	.	.	.	16aa 16a\)	.	.	.	.
.	.	.	.	.	.	.	.	.	.	.	.	.	.	.	.	.	.	.	.	16f 16F'/	.	.	.	.	.	.	.	.	.	.	.	16ff 16f'\	.	.	.	.
.	.	.	.	.	.	.	.	.	.	.	.	.	.	.	.	.	.	.	.	16cJJ 16C'/	.	.	.	.	.	.	.	16cc/Jk	.	.	.	16ccJJ 16c'\	.	.	.	.
4C 4CC/	4e 4c 4G/	4C/	za-	.	4G/	.	4c/	4e/	za-	.	.	4G/	4C\	.	.	.	.	.	.	4c 4C/	.	.	.	4G/	.	4e/	.	(16bn\LL	.	.	.	(16bn/LL	4g\	.	.	.
.	.	.	.	.	.	.	.	.	.	.	.	.	.	.	.	.	.	.	.	.	.	.	.	.	.	.	.	16cc\	.	.	.	16cc/)	.	.	.	.
.	.	.	.	.	.	.	.	.	.	.	.	.	.	.	.	.	.	.	.	.	.	.	.	.	.	.	.	16dd\	.	.	.	16dd'/	.	.	.	.
.	.	.	.	.	.	.	.	.	.	.	.	.	.	.	.	.	.	.	.	.	.	.	.	.	.	.	.	16ee\JJ	.	.	.	16ee'/JJ	.	.	.	.
*	*	*	*	*	*	*	*	*	*	*	*	*	*	*	*	*	*	*	*	*	*	*	*	*	*	*	*	*	*	*	*	*v	*v	*	*	*
=18	=18	=18	=18	=18	=18	=18	=18	=18	=18	=18	=18	=18	=18	=18	=18	=18	=18	=18	=18	=18	=18	=18	=18	=18	=18	=18	=18	=18	=18	=18	=18	=18	=18	=18	=18
!LO:TX:a:t=1ma	!	!	!	!	!	!	!	!	!	!	!	!	!	!	!	!	!	!	!	!	!	!	!	!	!	!	!	!	!	!	!	!	!	!	!
*>B1	*>B1	*>B1	*>B1	*>B1	*>B1	*>B1	*>B1	*>B1	*>B1	*>B1	*>B1	*>B1	*>B1	*>B1	*>B1	*>B1	*>B1	*>B1	*>B1	*>B1	*>B1	*>B1	*>B1	*>B1	*>B1	*>B1	*>B1	*>B1	*>B1	*>B1	*>B1	*>B1	*>B1	*>B1	*>B1
*	*	*	*	*	*	*	*	*	*	*	*	*	*	*	*	*	*	*	*	*	*	*^	*	*	*	*	*	*	*	*	*	*	*	*	*
!	!	!	!	!	!	!	!	!	!	!	!	!	!	!	!	!	!	!	!	!	!	!	!	!	!	!	!	!	!	!	!	!	!LO:TX:t=P:problem:dwa łuki skierowane w górę	!	!	!
2.C 2.FF/	2g 2e 2B-/	2F\	-ko-	.	2B-\	.	2e/	2g/	-ko-	.	2.ryy	2B-/	2.F\	2.r	.	2.r	.	2.r	.	2.c 2.F/	.	2.cc/	2.cc\	.	(2e/	.	(2g/	.	(2gg\)	.	16r	.	(2gg (2b-\	.	16r	.
.	.	.	.	.	.	.	.	.	.	.	.	.	.	.	.	.	.	.	.	.	.	.	.	.	.	.	.	.	.	.	(16bbX\LL	.	.	.	16bbn\LL	.
.	.	.	.	.	.	.	.	.	.	.	.	.	.	.	.	.	.	.	.	.	.	.	.	.	.	.	.	.	.	.	16ddd\	.	.	.	16ddd\	.
.	.	.	.	.	.	.	.	.	.	.	.	.	.	.	.	.	.	.	.	.	.	.	.	.	.	.	.	.	.	.	16ccc\JJ	.	.	.	16ccc\JJ	.
.	.	.	.	.	.	.	.	.	.	.	.	.	.	.	.	.	.	.	.	.	.	.	.	.	.	.	.	.	.	.	16bb\LL	.	.	.	16bb\LL	.
.	.	.	.	.	.	.	.	.	.	.	.	.	.	.	.	.	.	.	.	.	.	.	.	.	.	.	.	.	.	.	16ccc\	.	.	.	16ccc\	.
.	.	.	.	.	.	.	.	.	.	.	.	.	.	.	.	.	.	.	.	.	.	.	.	.	.	.	.	.	.	.	16bb-\	.	.	.	16bb-X\	.
.	.	.	.	.	.	.	.	.	.	.	.	.	.	.	.	.	.	.	.	.	.	.	.	.	.	.	.	.	.	.	16gg\JJ)	.	.	.	16gg\JJ	.
.	4f 4A/	4F\	-nu	.	4A\	.	4f/	4f/	-nu	.	.	4A/	.	.	.	.	.	.	.	.	.	.	.	.	4f/)	.	4f/)	.	4ff\)	.	4ff\	.	4ff 4a\))	.	4ff\	.
=19:|!	=19:|!	=19:|!	=19:|!	=19:|!	=19:|!	=19:|!	=19:|!	=19:|!	=19:|!	=19:|!	=19:|!	=19:|!	=19:|!	=19:|!	=19:|!	=19:|!	=19:|!	=19:|!	=19:|!	=19:|!	=19:|!	=19:|!	=19:|!	=19:|!	=19:|!	=19:|!	=19:|!	=19:|!	=19:|!	=19:|!	=19:|!	=19:|!	=19:|!	=19:|!	=19:|!	=19:|!
!LO:TX:a:t=2da	!	!	!	!	!	!	!	!	!	!	!	!	!	!	!	!	!	!	!	!	!	!	!	!	!	!	!	!	!	!	!	!	!	!	!	!
*>B2	*>B2	*>B2	*>B2	*>B2	*>B2	*>B2	*>B2	*>B2	*>B2	*>B2	*>B2	*>B2	*>B2	*>B2	*>B2	*>B2	*>B2	*>B2	*>B2	*>B2	*>B2	*>B2	*>B2	*>B2	*>B2	*>B2	*>B2	*>B2	*>B2	*>B2	*>B2	*>B2	*>B2	*>B2	*>B2	*>B2
*^	*	*	*	*	*	*	*	*	*	*	*	*	*	*	*	*	*	*	*	*	*	*	*	*	*	*	*	*	*	*	*	*	*	*	*	*
!	!	!	!	!	!	!	!	!	!	!	!	!	!	!	!	!	!	!	!	!	!	!	!	!	!	!	!	!	!	!	!	!	!	!LO:TX:t=P:problem:dwa łuki skierowane w górę	!	!	!
2.C/	4FF\	2g 2e 2B-/	(4F\	-ko-	.	2B-\	.	2e/	2g/	-ko-	.	2.ryy	2B-/	4F\	2.r	.	2.r	.	2.r	.	[2.c [2.F/	.	[2.cc/	[2.cc\	.	2e/	.	2g/	.	2gg\	.	16r	.	(2ee (2b-\	.	16r	.
.	.	.	.	.	.	.	.	.	.	.	.	.	.	.	.	.	.	.	.	.	.	.	.	.	.	.	.	.	.	.	.	(16bbX\LL	.	.	.	16bbn\LL	.
.	.	.	.	.	.	.	.	.	.	.	.	.	.	.	.	.	.	.	.	.	.	.	.	.	.	.	.	.	.	.	.	16ddd\	.	.	.	16ddd\	.
.	.	.	.	.	.	.	.	.	.	.	.	.	.	.	.	.	.	.	.	.	.	.	.	.	.	.	.	.	.	.	.	16ccc\JJ	.	.	.	16ccc\JJ	.
.	4CC\	.	4C/)	.	.	.	.	.	.	.	.	.	.	4C\	.	.	.	.	.	.	.	.	.	.	.	.	.	.	.	.	.	16bb\LL	.	.	.	16bb\LL	.
.	.	.	.	.	.	.	.	.	.	.	.	.	.	.	.	.	.	.	.	.	.	.	.	.	.	.	.	.	.	.	.	16ccc\	.	.	.	16ccc\	.
.	.	.	.	.	.	.	.	.	.	.	.	.	.	.	.	.	.	.	.	.	.	.	.	.	.	.	.	.	.	.	.	16bb-\	.	.	.	16bb-X\	.
.	.	.	.	.	.	.	.	.	.	.	.	.	.	.	.	.	.	.	.	.	.	.	.	.	.	.	.	.	.	.	.	16gg\JJ)	.	.	.	16gg\JJ	.
.	4FF\	[4f [4A/	4F\	-nu	.	4A\	.	4f/	4f/	-nu	.	.	[4A/	4F\	.	.	.	.	.	.	.	.	.	.	.	4f/	.	[4f^/	.	4ff^<\	.	[4ff\	.	4ff 4a\))	.	[4ff\	.
=20	=20	=20	=20	=20	=20	=20	=20	=20	=20	=20	=20	=20	=20	=20	=20	=20	=20	=20	=20	=20	=20	=20	=20	=20	=20	=20	=20	=20	=20	=20	=20	=20	=20	=20	=20	=20	=20
*	*	*	*	*	*	*	*	*	*	*	*	*	*	*	*	*	*	*	*^	*	*	*	*	*	*	*	*	*	*	*	*	*	*	*	*	*	*
8C/	8FF\	8f] 8A/]	4r	.	.	4r	.	4r	4r	.	.	2.ryy	8A/]	8F\	4r	.	4r	.	4r	4ryy	.	8c] 8F/]	.	8cc/]	8cc\]	.	8a/	.	8f/]	.	8ff\	.	8ff\]	.	8ff 8a\	.	8ff\]	.
8r	8ryy	8r	.	.	.	.	.	.	.	.	.	.	8r	8ryy	.	.	.	.	.	.	.	8r	.	8r	8ryy	.	8r	.	8r	.	8r	.	8r	.	8r	.	8r	.
!	!	!LO:TX:a:t=fine	!	!	!	!	!	!	!	!	!	!	!	!	!	!	!	!	!	!	!	!	!	!	!	!	!	!	!	!	!	!	!	!	!	!	!LO:TX:t=P:problem:fermata na kresce taktowej	!
!	!	!LO:TX:t=P:problem:fermata na kresce taktowej	!	!	!	!	!	!	!	!	!	!	!	!	!	!	!	!	!	!	!	!	!	!	!	!	!	!	!	!	!	!	!	!	!	!	!	!
4F 4FF/	2ryy	4ff 4a 4f;\	4r	.	.	4r	.	4r	4r	.	.	.	4A/	4F\	4F 4FF/	.	4f 4A\	.	4a/	4f\	.	4f 4A/	.	4cc/	4cc\	.	4a/	.	4ff\	.	4ff\	.	4fff\	.	4ff 4a^\	.	4fff;\	.
=||	=||	=||	=||	=||	=||	=||	=||	=||	=||	=||	=||	=||	=||	=||	=||	=||	=||	=||	=||	=||	=||	=||	=||	=||	=||	=||	=||	=||	=||	=||	=||	=||	=||	=||	=||	=||	=||	=||
*>C	*>C	*>C	*>C	*>C	*>C	*>C	*>C	*>C	*>C	*>C	*>C	*>C	*>C	*>C	*>C	*>C	*>C	*>C	*>C	*>C	*>C	*>C	*>C	*>C	*>C	*>C	*>C	*>C	*>C	*>C	*>C	*>C	*>C	*>C	*>C	*>C	*>C	*>C
4r	.	(8eL 8c/	4r	.	.	4r	.	(8c/L	(8e/L	Do	.	.	4rF	4rEE	4r	.	4r	.	4r	4ryy	.	4r	.	4r	4ryy	.	(8c/L	.	(8e/L	.	(8e/L	.	4r	.	4r	.	4r	.
.	.	8fJ 8d/)	.	.	.	.	.	8d/J)	8f/J)	.	.	.	.	.	.	.	.	.	.	.	.	.	.	.	.	.	8d/J	.	8f/J)	.	8f/J)	p	.	.	.	.	.	.
*	*	*	*	*	*	*	*	*	*	*	*	*	*	*	*	*	*	*	*v	*v	*	*	*	*v	*v	*	*	*	*	*	*	*	*	*	*	*	*	*
!!LO:PB:g=original
=21	=21	=21	=21	=21	=21	=21	=21	=21	=21	=21	=21	=21	=21	=21	=21	=21	=21	=21	=21	=21	=21	=21	=21	=21	=21	=21	=21	=21	=21	=21	=21	=21	=21	=21	=21	=21
!	!LO:N:vis=2	!	!	!	!	!	!	!	!	!	!	!	!	!	!	!	!	!	!	!	!	!	!	!	!	!	!	!	!	!	!	!	!	!	!	!
2.C\	(8C/L	2g 2e/	2.r	.	.	2.r	.	2e/	2g/	Cie-	.	2.r	8C\L	2.C/	2.r	.	2.r	.	2.r	.	2.r	.	2.r	.	2e/)	.	2g/	.	2g/	.	2.r	.	2.r	.	2.r	.
.	8G/	.	.	.	.	.	.	.	.	.	.	.	(8G'\	.	.	.	.	.	.	.	.	.	.	.	.	.	.	.	.	.	.	.	.	.	.	.
.	8c/	.	.	.	.	.	.	.	.	.	.	.	8c\	.	.	.	.	.	.	.	.	.	.	.	.	.	.	.	.	.	.	.	.	.	.	.
.	8G/	.	.	.	.	.	.	.	.	.	.	.	8G\	.	.	.	.	.	.	.	.	.	.	.	.	.	.	.	.	.	.	.	.	.	.	.
.	8c/	4cc 4e/	.	.	.	.	.	4e/	4cc\	-bie	.	.	8c\	.	.	.	.	.	.	.	.	.	.	.	4e/	.	4cc/	.	4cc\	.	.	.	.	.	.	.
.	8G/J)	.	.	.	.	.	.	.	.	.	.	.	(<8G\J)	.	.	.	.	.	.	.	.	.	.	.	.	.	.	.	.	.	.	.	.	.	.	.
=22	=22	=22	=22	=22	=22	=22	=22	=22	=22	=22	=22	=22	=22	=22	=22	=22	=22	=22	=22	=22	=22	=22	=22	=22	=22	=22	=22	=22	=22	=22	=22	=22	=22	=22	=22	=22
*rep	*rep	*	*	*	*	*	*	*	*	*	*	*	*	*	*	*	*	*	*	*	*	*	*	*	*	*	*	*	*	*	*	*	*	*	*	*
!	!LO:N:vis=2	!	!	!	!	!	!	!	!	!	!	!	!	!	!	!	!	!	!	!	!	!	!	!	!	!	!	!	!	!	!	!	!	!	!	!
2.C\	(8C/L	4.ee 4.g/	2.r	.	.	2.r	.	4.g/	(4.ee\	przy	.	2.r	8C'\L)	2.C/	2.r	.	2.r	.	2.r	.	2.r	.	2.r	.	4.g/	.	4.ee\	.	4.ee\	.	2.r	.	2.r	.	2.r	.
.	8G/	.	.	.	.	.	.	.	.	.	.	.	(8G\	.	.	.	.	.	.	.	.	.	.	.	.	.	.	.	.	.	.	.	.	.	.	.
.	8c/	.	.	.	.	.	.	.	.	.	.	.	8c\	.	.	.	.	.	.	.	.	.	.	.	.	.	.	.	.	.	.	.	.	.	.	.
.	8G/	8dd 8f/	.	.	.	.	.	8f/	8dd\)	.	.	.	8G\	.	.	.	.	.	.	.	.	.	.	.	8f/	.	8dd\	.	8dd\	.	.	.	.	.	.	.
.	8c/	4cc 4e/	.	.	.	.	.	4e/	4cc\	niej	.	.	8c\	.	.	.	.	.	.	.	.	.	.	.	4e/	.	4cc\	.	4cc\	.	.	.	.	.	.	.
.	8G/J)	.	.	.	.	.	.	.	.	.	.	.	8G\J)	.	.	.	.	.	.	.	.	.	.	.	.	.	.	.	.	.	.	.	.	.	.	.
*Xrep	*Xrep	*	*	*	*	*	*	*	*	*	*	*	*	*	*	*	*	*	*	*	*	*	*	*	*	*	*	*	*	*	*	*	*	*	*	*
=23	=23	=23	=23	=23	=23	=23	=23	=23	=23	=23	=23	=23	=23	=23	=23	=23	=23	=23	=23	=23	=23	=23	=23	=23	=23	=23	=23	=23	=23	=23	=23	=23	=23	=23	=23	=23
!	!LO:N:vis=2	!	!	!	!	!	!	!	!	!	!	!	!	!	!	!	!	!	!	!	!	!	!	!LO:DY:rj	!	!	!	!	!	!	!	!	!	!	!	!
2.C/	(>8C\L	4.a 4.f/	2.r	.	.	2.r	.	4.f/	4.a\	lud	.	2.r	2.C/	8C'>\L	2.r	.	2.r	.	2.r	.	2.r	.	[2.cc [2.c/	p	4.f/	.	4.a/	.	4.a/	<	2.r	.	4.ff/	.	4.aa\	.
.	8F\	.	.	.	.	.	.	.	.	.	.	.	.	(>8F\	.	.	.	.	.	.	.	.	.	.	.	.	.	.	.	.	.	.	.	.	.	.
.	8c\	.	.	.	.	.	.	.	.	.	.	.	.	8c\	.	.	.	.	.	.	.	.	.	.	.	.	.	.	.	.	.	.	.	.	.	.
.	8F\	8bn 8g/	.	.	.	.	.	8g/	8bn\	pod-	.	.	.	8F\	.	.	.	.	.	.	.	.	.	.	8g/	.	8bn/	.	8bn/	.	.	.	8gg/	.	8bbn\	.
.	.	8qdd 8qb/	.	.	.	.	.	8qbn/	8qdd/	.	.	.	.	.	.	.	.	.	.	.	.	.	.	.	(8qbn/	.	(8qdd/	.	(8qdd/	[ >	.	.	(8qbbn/	.	(8qddd/	.
.	8c\	8ccL 8a/	.	.	.	.	.	8a/	8cc\	-no-	.	.	.	8c\	.	.	.	.	.	.	.	.	.	.	8a/L)	.	8cc/L)	.	8cc/L)	.	.	.	8aa/L)	.	8ccc\L)	.
.	8F\J)	8aJ 8f/	.	.	.	.	.	8f/	8a/	-si	.	.	.	8F\J)	.	.	.	.	.	.	.	.	.	.	8f'/J	.	8a/J	.	8a/J	]]	.	.	8ff'>/J	.	8aa'\J	.
=24	=24	=24	=24	=24	=24	=24	=24	=24	=24	=24	=24	=24	=24	=24	=24	=24	=24	=24	=24	=24	=24	=24	=24	=24	=24	=24	=24	=24	=24	=24	=24	=24	=24	=24	=24	=24
!	!LO:N:vis=2	!	!	!	!	!	!	!	!	!	!	!	!	!	!	!	!	!	!	!	!	!	!	!	!	!	!	!	!	!	!	!	!	!	!	!
2.C/	(>8C\L	8gL 8e/	2.r	.	.	2.r	.	8e/L	8g/L	pie-	.	2.r	8C'\L	2.C/	2.r	.	2.r	.	2.r	.	2.r	.	2.cc] 2.c/]	.	8e/L	.	8g/L	.	8g/L	.	2.r	.	8ee/L	.	8gg\L	.
.	8G\	8eJ 8c/	.	.	.	.	.	8c/J	8e/J	.	.	.	(8G\	.	.	.	.	.	.	.	.	.	.	.	8c/J	.	8e/J	.	8e/J	.	.	.	8cc/J	.	8ee\J	.
.	8c\	2g 2e/	.	.	.	.	.	2e/	2g/	-nia	.	.	8c\	.	.	.	.	.	.	.	.	.	.	.	2e/	.	2g/	.	2g/	.	.	.	2ee/	.	2gg\	.
.	8G\	.	.	.	.	.	.	.	.	.	.	.	8G\	.	.	.	.	.	.	.	.	.	.	.	.	.	.	.	.	.	.	.	.	.	.	.
.	8c\	.	.	.	.	.	.	.	.	.	.	.	8c\	.	.	.	.	.	.	.	.	.	.	.	.	.	.	.	.	.	.	.	.	.	.	.
.	8G\J)	.	.	.	.	.	.	.	.	.	.	.	8G\J)	.	.	.	.	.	.	.	.	.	.	.	.	.	.	.	.	.	.	.	.	.	.	.
*v	*v	*	*	*	*	*	*	*	*	*	*	*	*v	*v	*	*	*	*	*	*	*	*	*	*	*	*	*	*	*	*	*	*	*	*	*	*
=25	=25	=25	=25	=25	=25	=25	=25	=25	=25	=25	=25	=25	=25	=25	=25	=25	=25	=25	=25	=25	=25	=25	=25	=25	=25	=25	=25	=25	=25	=25	=25	=25	=25	=25
*	*^	*	*	*	*	*	*	*	*	*	*	*	*	*	*	*	*	*	*	*	*	*	*	*	*	*	*	*	*	*	*	*	*	*
!LO:TX:t=P:problem:mixed beam	!	!	!	!	!	!	!	!	!	!	!	!	!LO:TX:t=P:problem:mixed beam	!	!	!	!	!	!	!	!	!	!	!	!	!	!	!LO:TX:a:t=Col 1o.	!	!	!	!	!	!	!
8AA/L	8.cc/L	2e\	4A\	Niech	.	4c\	.	4e/	(8.cc\L	Niech	.	2.r	8AA/L	2.r	.	2.r	.	2.r	.	2.r	.	2.r	.	2.e/	.	(8.cc\L	.	(y8.cc\Lyy	.	2.r	.	2.r	.	2.r	.
8A\J	.	.	.	.	.	.	.	.	.	.	.	.	8A\J	.	.	.	.	.	.	.	.	.	.	.	.	.	.	.	.	.	.	.	.	.	.
.	32dd/LL	.	.	.	.	.	.	.	32dd\LL	.	.	.	.	.	.	.	.	.	.	.	.	.	.	.	.	32dd\LL	.	32dd\LLyy	.	.	.	.	.	.	.
.	32cc/JJJ	.	.	.	.	.	.	.	32cc\JJJ)	.	.	.	.	.	.	.	.	.	.	.	.	.	.	.	.	32cc\JJJ	.	32cc\JJJyy	.	.	.	.	.	.	.
!LO:TX:t=P:problem:mixed beam	!	!	!	!	!	!	!	!	!	!	!	!	!LO:TX:t=P:problem:mixed beam	!	!	!	!	!	!	!	!	!	!	!	!	!	!	!	!	!	!	!	!	!	!
8GG#X/L	4bn/	.	4G#X\	go	.	4d\	.	4e/	4bn\	go	.	.	8GG#X/L	.	.	.	.	.	.	.	.	.	.	.	.	4bn\)	.	4bn\)yy	.	.	.	.	.	.	.
8G#X\J	.	.	.	.	.	.	.	.	.	.	.	.	8G#X\J	.	.	.	.	.	.	.	.	.	.	.	.	.	.	.	.	.	.	.	.	.	.
!LO:TX:t=P:problem:mixed beam	!	!	!	!	!	!	!	!	!	!	!	!	!LO:TX:t=P:problem:mixed beam	!	!	!	!	!	!	!	!	!	!	!	!	!	!	!	!	!	!	!	!	!	!
8AA/L	4cc/	4e\	4A\	łas-	.	4c\	.	4e/	4cc\	łas-	.	.	8AA/L	.	.	.	.	.	.	.	.	.	.	.	.	4cc\	.	4cc\yy	.	.	.	.	.	.	.
8A\J	.	.	.	.	.	.	.	.	.	.	.	.	8A\J	.	.	.	.	.	.	.	.	.	.	.	.	.	.	.	.	.	.	.	.	.	.
=26	=26	=26	=26	=26	=26	=26	=26	=26	=26	=26	=26	=26	=26	=26	=26	=26	=26	=26	=26	=26	=26	=26	=26	=26	=26	=26	=26	=26	=26	=26	=26	=26	=26	=26	=26
*	*	*^	*	*	*	*	*	*	*	*	*	*	*	*	*	*	*	*	*	*^	*	*	*	*	*	*	*	*	*	*	*	*	*	*	*
!LO:TX:t=P:problem:mixed beam	!	!	!	!	!	!	!	!	!	!	!	!	!	!LO:TX:t=P:problem:mixed beam	!	!	!	!	!	!	!	!	!	!	!	!	!	!	!	!	!	!	!	!	!	!	!
8FF#X/L	4.dd/	2a\	2.d\	2F#X\	-ka-	.	2d\	.	2a/	(4.dd\	-ka-	.	2.r	8FF#X/L	2.r	.	2.r	.	2.r	.	2a/	2f#X\	.	2.r	.	2a/	.	4.dd\	.	4.dd\yy	.	2.r	.	2.r	.	2.r	.
8F#X\J	.	.	.	.	.	.	.	.	.	.	.	.	.	8F#X\J	.	.	.	.	.	.	.	.	.	.	.	.	.	.	.	.	.	.	.	.	.	.	.
*	*	*	*	*	*	*	*	*	*	*	*	*	*	*rep	*	*	*	*	*	*	*	*	*	*	*	*	*	*	*	*	*	*	*	*	*	*	*
!LO:TX:t=P:problem:mixed beam	!	!	!	!	!	!	!	!	!	!	!	!	!	!LO:TX:t=P:problem:mixed beam	!	!	!	!	!	!	!	!	!	!	!	!	!	!	!	!	!	!	!	!	!	!	!
8FF#/L	.	.	.	.	.	.	.	.	.	.	.	.	.	8FF#/L	.	.	.	.	.	.	.	.	.	.	.	.	.	.	.	.	.	.	.	.	.	.	.
8F#\	8cc/	.	.	.	.	.	.	.	.	8cc\)	.	.	.	8F#\J	.	.	.	.	.	.	.	.	.	.	.	.	.	8cc\	.	8cc\yy	.	.	.	.	.	.	.
*	*	*	*	*	*	*	*	*	*	*	*	*	*	*Xrep	*	*	*	*	*	*	*	*	*	*	*	*	*	*	*	*	*	*	*	*	*	*	*
!	!	!	!	!	!	!	!	!	!	!	!	!	!	!LO:TX:t=P:problem:mixed beam	!	!	!	!	!	!	!	!	!	!	!	!	!	!	!	!	!	!	!	!	!	!	!
8GG/	4bn/	4g\	.	4G\	-wie	.	4c\	.	4g/	4bn\	-wie	.	.	8GG/L	.	.	.	.	.	.	4g/	4g\	.	.	.	4g/	.	4bn\	.	4bn\yy	.	.	.	.	.	.	.
8G\J	.	.	.	.	.	.	.	.	.	.	.	.	.	8G\J	.	.	.	.	.	.	.	.	.	.	.	.	.	.	.	.	.	.	.	.	.	.	.
*	*v	*v	*v	*	*	*	*	*	*	*	*	*	*	*	*	*	*	*	*	*	*v	*v	*	*	*	*	*	*	*	*	*	*	*	*	*	*	*
!!LO:PB:g=original
=27	=27	=27	=27	=27	=27	=27	=27	=27	=27	=27	=27	=27	=27	=27	=27	=27	=27	=27	=27	=27	=27	=27	=27	=27	=27	=27	=27	=27	=27	=27	=27	=27	=27	=27
*	*	*	*	*	*	*	*	*	*	*	*	*	*	*	*	*	*	*	*	*	*	*	*	*	*	*	*	*	*	*	*^	*	*	*
!	!	!	!	!	!	!	!	!	!	!	!	!	!	!	!	!	!	!	!LO:TX:t=P:problem:zamiana położenia partii cor in F. w partyturze	!	!	!	!	!	!	!	!	!	!	!	!	!	!	!	!
!	!	!	!	!	!	!	!	!	!	!	!	!	!	!	!	!	!	!	!LO:TX:a:t=Cor in F.	!	!LO:TX:t=P:problem:zamiana położenia partii cor in C. w partyturze	!	!	!	!	!	!	!	!	!	!	!	!	!	!
8GL 8GG\	8bnL 8g 8d/	8G\	do-	.	8d\	.	8g/	8bn\	do-	.	2.r	8GL 8GG\	2.r	.	2.r	.	2.r	.	8g'\L	.	2.r	.	8g/L	.	8bn'>/L	.	8bn'>/Lyy	.	2.r	.	8gg'/L	2.r	.	8bbn'\L	.
8BBn\J	8ddJ 8g 8d/	8BBn/	-broć	.	8d\	.	8g/	8dd\	-broć	.	.	8BnJ 8BBn\	.	.	.	.	.	.	8g'\J	.	.	.	8g/J	.	8dd'>/J	.	8dd'>/Jyy	.	.	.	8gg'/J	.	.	8ddd'\J	.
4AA/	4cc 4a 4e/	4AA/	Twa	.	4e\	.	4a/	4cc\	Twa	.	.	4A 4AA\	.	.	.	.	.	.	4a 4f\	.	.	.	4a/	.	4cc/	.	4cc/yy	.	.	.	4aa/	.	.	4ccc\	.
4D\	4a 4f#X 4d/	4D\	wy-	.	4d\	.	4f#X/	4a/	wy-	.	.	4d 4D\	.	.	.	.	.	.	4a 4f#X\	.	.	.	4f#X/	.	4a/	.	4a/yy	.	.	.	4ff#X/	.	.	4aa\	.
=28	=28	=28	=28	=28	=28	=28	=28	=28	=28	=28	=28	=28	=28	=28	=28	=28	=28	=28	=28	=28	=28	=28	=28	=28	=28	=28	=28	=28	=28	=28	=28	=28	=28	=28	=28
4D\	4a 4f#X 4d 4c/	4D\	-słu-	.	4c\	.	4f#X/	4a/	-słu-	.	2.r	(4c 4F\	2.ryy	.	2.ryy	.	2.r	.	4a 4f#X\	.	4r	.	(4f#X/	.	(>4a/	.	(y>4a/yy	.	2.r	.	4ff#X/	4r	.	(4aa\	.
8G\	8g 8d 8Bn/	8G\	-cha	.	8Bn\	.	8g/	8g/	-cha	.	.	8Bn 8G\)	.	.	.	.	.	.	8g\	.	4r	.	8g/)	.	8g'>/)	.	8g'>/)yy	.	.	.	8gg/	8re	.	8gg\)	.
4G\	4g/	8G\	Wlej	.	8G/	.	8g/	8g/	Wlej	.	.	8G\L	.	.	.	.	.	.	8r	.	.	.	8g/L	.	8g/L	.	8g/Lyy	.	.	.	8gg/L	8gg\L	<	8r	.
!	!	!	!	!	!	!	!	!	!	!	!	!	!	!	!	!	!	!	!	!	!LO:TX:a:t=Cor in C.	!	!	!	!	!	!	!	!	!	!	!	!	!	!
.	.	8G\	w_ser-	.	8G/	.	8g/	8g/	w_ser-	.	.	8G\	.	.	.	.	.	.	4r	.	8r	.	8g/	.	8g/	.	8g/yy	.	.	.	8gg/	8gg\	.	4r	.
8Fn\	8bn 8g 8d/	8Fn\	-ca	.	8d\	.	8g/	8bn\	-ca	.	.	8Fn\J	.	.	.	.	.	.	.	.	8dd 8g/	.	8g/J	.	8bn/J	.	8bn/Jyy	.	.	.	8bbn/J	8gg\J	[[	.	.
=29	=29	=29	=29	=29	=29	=29	=29	=29	=29	=29	=29	=29	=29	=29	=29	=29	=29	=29	=29	=29	=29	=29	=29	=29	=29	=29	=29	=29	=29	=29	=29	=29	=29	=29	=29
*	*	*	*	*	*	*	*	*	*	*	*	*	*	*	*	*	*	*	*	*	*^	*	*	*	*	*	*	*	*	*	*	*	*	*	*
[4E\	4cc 4g 4c/	4E\	na-	.	4c\	.	4g/	4cc\	na-	.	2.r	4.E\	2.ryy	.	2.ryy	.	2.r	.	2.r	.	4.ee/	4.cc\	.	4.g/	.	4cc/	.	4cc/yy	.	2.r	.	(4ccc 4gg\	4ryy	>	2.r	.
8E\]	8g 8c/	8E\	-sze	.	8c\	.	8g/	8g/	-sze	.	.	.	.	.	.	.	.	.	.	.	.	.	.	.	.	8g/	.	8g/yy	.	.	.	8gg\)	8ryy	]	.	.
4G\	4g/	16G\	Po-	.	16G/	.	16g/	16g/	Po-	.	.	16G\LL	.	.	.	.	.	.	.	.	8r	8ryy	.	16g/LL	.	16g/LL	.	16g/LLyy	.	.	.	16gg/LL	16gg\LL	<	.	.
.	.	16G\	-bo-	.	16G/	.	16g/	16g/	-bo-	.	.	16G\J	.	.	.	.	.	.	.	.	.	.	.	16g/J	.	16g/J	.	16g/Jyy	.	.	.	16gg/J	16gg\J	.	.	.
.	.	8G\	-żno-	.	8G/	.	8g/	8g/	-żno-	.	.	8G\	.	.	.	.	.	.	.	.	8r	8ryy	.	8g/	.	8g/	.	8g/yy	.	.	.	8gg/	8gg\	.	.	.
8F\	8bn 8g 8d/	8Fn\	-ści	.	8d\	.	8g/	8bn/	-ści	.	.	8Fn\J	.	.	.	.	.	.	.	.	8dd 8g/	8ryy	.	8g/J	.	8bn/J	.	8bn/Jyy	.	.	.	8bbn/J	8gg\J	[[	.	.
=30	=30	=30	=30	=30	=30	=30	=30	=30	=30	=30	=30	=30	=30	=30	=30	=30	=30	=30	=30	=30	=30	=30	=30	=30	=30	=30	=30	=30	=30	=30	=30	=30	=30	=30	=30	=30
2C/	4cc 4g 4c/	4E\	Du-	.	4c\	.	4g/	4cc\	Du-	.	2.r	2E\	2.ryy	.	2.ryy	.	2.r	.	2.r	.	2ee/	2cc\	.	2g/	.	4cc/	.	4cc/yy	.	4r	.	(4ccc/	2gg\	>	4r	.
.	4g 4c/	4E\	-cha	.	4c\	.	4g/	4g/	-cha	.	.	.	.	.	.	.	.	.	.	.	.	.	.	.	.	4g/	.	4g/yy	.	4r	.	4gg/)	.	]	4r	.
8.GG/L	8.g/L	4r	.	.	4r	.	4r	4r	.	.	.	8.GL 8.GG/	.	.	.	.	.	.	.	.	4r	4ryy	.	4r	.	(8.g/L	.	(y8.g/Lyy	.	(8.gg\L	.	4ree	4rf	.	(8.gg\L	.
32AA/LL	32a/LL	.	.	.	.	.	.	.	.	.	.	(32ALL 32AA/	.	.	.	.	.	.	.	.	.	.	.	.	.	32a/LL	.	32a/LLyy	.	32aa\LL	.	.	.	.	32aa\LL	.
32BB-/JJJ	32b-/JJJ	.	.	.	.	.	.	.	.	.	.	32BnJJJ 32BBn/)	.	.	.	.	.	.	.	.	.	.	.	.	.	32b-/JJJ)	.	32b-/JJJ)yy	.	32bbX\JJJ)	.	.	.	.	32bbn\JJJ)	.
!!LO:PB:g=original
=31	=31	=31	=31	=31	=31	=31	=31	=31	=31	=31	=31	=31	=31	=31	=31	=31	=31	=31	=31	=31	=31	=31	=31	=31	=31	=31	=31	=31	=31	=31	=31	=31	=31	=31	=31	=31
*	*^	*	*	*	*	*	*	*	*	*	*	*^	*	*	*	*	*	*	*	*	*	*	*	*	*	*	*	*	*	*	*	*	*	*	*	*
*	*	*^	*	*	*	*	*	*	*	*	*	*	*	*	*	*	*	*	*	*	*	*	*	*	*	*	*	*	*	*	*	*	*	*	*	*	*	*
!	!	!	!	!	!	!	!	!	!	!	!	!	!	!	!	!	!	!	!	!	!	!	!	!LO:TX:a:t=Cor in C.	!	!	!	!	!	!	!	!	!	!	!	!	!	!	!
4C\	8.cc/L	2g\	4e\	4C/	I	.	4e\	.	4g/	8.cc\L	I	.	2.r	8c/L	4C\	2.r	.	2.r	.	(4e 4c/	.	2.r	.	4ee/	4cc\	.	2g/	.	(8.cc\L	.	(y8.cc\Lyy	.	(8.ccc\L	.	4ee/	2cc\	.	(8.ccc\L	.
.	.	.	.	.	.	.	.	.	.	.	.	.	.	8C/J	.	.	.	.	.	.	.	.	.	.	.	.	.	.	.	.	.	.	.	.	.	.	.	.	.
.	32dd/LL	.	.	.	.	.	.	.	.	32dd\LL	.	.	.	.	.	.	.	.	.	.	.	.	.	.	.	.	.	.	32dd\LL	.	32dd\LLyy	.	32ddd\LL	.	.	.	.	32ddd\LL	.
.	32cc/JJJ	.	.	.	.	.	.	.	.	32cc\JJJ	.	.	.	.	.	.	.	.	.	.	.	.	.	.	.	.	.	.	32cc\JJJ	.	32cc\JJJyy	.	32ccc\JJJ	.	.	.	.	32ccc\JJJ	.
4D\	4bn/	.	4f\	4D/	o-	.	4f\	.	4g/	4bn\	o-	.	.	4D\	2ryy	.	.	.	.	4f 4d/	.	.	.	4ff/	4dd\	.	.	.	4bn\)	.	4bn\)yy	.	4bbX\)	.	4ff/	.	.	4bbn\	.
4E\	4cc 4g/	4c\	4ryy	4E\	-bruć	.	4c\	.	4g/	4cc\	-bróć	.	.	4E\	.	.	.	.	.	4g 4e/)	.	.	.	4ee/	4cc\	.	4g/	.	4cc\	.	4cc\yy	.	4ccc\	.	4gg/	4cc\	.	4ccc\)	.
*	*	*v	*v	*	*	*	*	*	*	*	*	*	*	*v	*v	*	*	*	*	*	*	*	*	*	*	*	*	*	*	*	*	*	*	*	*	*	*	*	*
=32	=32	=32	=32	=32	=32	=32	=32	=32	=32	=32	=32	=32	=32	=32	=32	=32	=32	=32	=32	=32	=32	=32	=32	=32	=32	=32	=32	=32	=32	=32	=32	=32	=32	=32	=32	=32	=32
2F\	2a/	2f 2d\	2F\	na	.	2d\	.	2f/	2a/	na	.	2.r	2F\	2.r	.	2.r	.	2a 2f/	.	2.r	.	2dd/	2dd\	.	2f/	.	2a/	.	2a/yy	.	2aa\	.	2ff/	2dd\	.	2aa\	.
4D\	4dd 4f 4d/	4ryy	4D\	nas	.	4A\	.	4f/	4dd\	nas	.	.	4D\	.	.	.	.	4r	.	.	.	4dd/	4dd\	.	4f/	.	4dd\	.	4dd\yy	.	4ddd\	.	4ff/	4dd\	.	4ddd\	.
*	*v	*v	*	*	*	*	*	*	*	*	*	*	*	*	*	*	*	*	*	*	*	*	*	*	*	*	*	*	*	*	*	*	*	*	*	*	*
=33	=33	=33	=33	=33	=33	=33	=33	=33	=33	=33	=33	=33	=33	=33	=33	=33	=33	=33	=33	=33	=33	=33	=33	=33	=33	=33	=33	=33	=33	=33	=33	=33	=33	=33	=33	=33
*	*	*	*	*	*	*	*	*	*	*	*	*	*	*	*^	*	*^	*	*	*	*	*	*	*	*	*	*	*	*	*	*	*	*	*	*	*
2G\	8ccL 8e/	8G\	Oj-	.	8c\	.	8e/L	8cc\	Oj-	.	4r	2G\	8r	.	8r	8ryy	.	8r	2ryy	.	2.r	.	4ee/	4cc\	.	8e/L	.	8cc/L	.	8cc/Lyy	.	8ccc\L	.	8ee/L	8cc\L	.	8ccc\L	.
.	8gJ 8e/	8G\	-co-	.	8e\	.	8g/J	8g/	-co-	.	.	.	8G\	.	8e 8G/	8ryy	.	8g/	.	.	.	.	.	.	.	8g/J	.	8g/J	.	8g/Jyy	.	8gg\J	.	8gg/J	8ee\J	.	8gg\J	.
.	4a 4f#X 4d#X/	4G\	-wskie	.	4d#X\	.	4f#X/	4a/	-wskie	.	4r	.	4G\	.	4d#X/	4A\	.	4a 4f#X/	.	.	.	.	4ff#X/	4dd#X\	.	4f#X/	.	4a/	.	4a/yy	.	4aa\	.	4ff#X/	4dd#X\	.	4aa\	.
4G 4GG\	4bn 4fn 4dn/	4GG/	wej-	.	4dn\	.	4fn/	4bn/	wej-	.	4GG/	4G 4GG/	4GG/	.	4dn/	4Bn\	.	4bn/	4fn\	.	.	.	4ffn/	4ddn\	.	4fn/	.	4bn/	.	4bn/yy	.	4bbX\	.	4ffn/	4ddn\	.	4bbn\	.
*	*	*	*	*	*	*	*	*	*	*	*	*	*	*	*	*	*	*	*	*	*	*	*v	*v	*	*	*	*	*	*	*	*	*	*	*	*	*	*
=34	=34	=34	=34	=34	=34	=34	=34	=34	=34	=34	=34	=34	=34	=34	=34	=34	=34	=34	=34	=34	=34	=34	=34	=34	=34	=34	=34	=34	=34	=34	=34	=34	=34	=34	=34	=34	=34
*	*	*	*	*	*	*	*	*	*	*	*	*^	*	*	*	*	*	*	*	*	*	*	*	*	*	*	*	*	*	*	*	*	*	*	*	*	*
4G 4GG\	4dd 4bn 4f/	4GG/	-rze-	.	4Bn\	.	4f/	4dd\	-rze-	.	(4GG/	(4Bn/	(>4GG\	4GG/	.	4d/	4Bn\	.	4bn/	4f\	.	2ryy	.	4dd 4g/	.	4f/	.	(4dd\	.	(y4dd\yy	.	(4ddd\	.	(4ff/	4bn\	.	(4ddd\	.
8G 8C\	8cc 8e/	8C/	-nie.	.	8c\	.	8e/	8cc\	-nie	.	8C/)	8c/)	8C\)	8C/	.	8c/	8c\	.	8cc 8e/	8ryy	.	.	.	8cc 8e/	.	8e/	.	8cc\)	.	8cc\)yy	.	8ccc\)	.	8ee/)	8cc\	.	8ccc\)	.
!	!	!	!	!	!	!	!	!	!	!	!	!	!	!	!	!	!	!	!	!	!	!	!	!	!	!	!	!	!	!	!	!	!	!	!	!	!LO:TX:t=[segno]:problem:znak segno nad kreską taktową	!
8r	8r	8r	.	.	8r	.	8r	8r	.	.	8r	8r	8r	8r	.	8r	8ryy	.	8r	8ryy	.	.	.	8r	.	8r	.	8r	.	8ryy	.	8r	.	8r	8r	.	8r	.
*	*	*	*	*	*	*	*	*	*	*	*	*	*	*	*	*v	*v	*	*	*	*	*	*	*	*	*	*	*	*	*	*	*	*	*v	*v	*	*	*
*	*	*	*	*	*	*	*	*	*	*	*	*v	*v	*	*	*	*	*v	*v	*	*	*	*	*	*	*	*	*	*	*	*	*	*	*	*	*
==	==	==	==	==	==	==	==	==	==	==	==	==	==	==	==	==	==	==	==	==	==	==	==	==	==	==	==	==	==	==	==	==	==	==
*-	*-	*-	*-	*-	*-	*-	*-	*-	*-	*-	*-	*-	*-	*-	*-	*-	*-	*-	*-	*-	*-	*-	*-	*-	*-	*-	*-	*-	*-	*-	*-	*-	*-	*-
!!!system-decoration: [{(p1,p2,p3)}{(p4,p5,p6)}{(p7,p8)}<p9>{(p10,p11)}<(p12,p13)>{g1}{(p18)}]
!!!RDF**kern: > = above
!!!RDF**kern: < = below
!!!RDF**kern: | = vertical stroke
!!!ENC: Andrzej Kubiczek
!!!END: 2021-04-24
!!!ENC: Anastazja Marusiak
!!!END: 2021-04-07
